X:1
T:The Pitnacree Ferrymen
L:1/8
M:4/4
I:linebreak $
K:D
V:1 treble 
V:1
 g | aA (3AGA gA (3AGA | f2 ef dBBg | aA (3AGA g2 ag | fedB A3 :| B | AFAB d2 fd |$ e2 fd edBd | %8
 AFAB d2 ed | gfed B2 dB | AFAB d2 fd | e2 fd edBd | AFAB d2 fa |$ efdB A3 || %14
